assets/dragonflybsd.svg

<svg xmlns="http://www.w3.org/2000/svg" viewBox="0 0 48 48"><radialGradient id="dragonflybsd_svg__a" cx="396.17" cy="216.92" r="102.5" gradientUnits="userSpaceOnUse"><stop offset="0" stop-color="#fff"/><stop offset=".042" stop-color="#F7F9D8"/><stop offset=".091" stop-color="#EFF2B2"/><stop offset=".143" stop-color="#E8ED91"/><stop offset=".199" stop-color="#E2E976"/><stop offset=".261" stop-color="#DDE562"/><stop offset=".33" stop-color="#DAE353"/><stop offset=".412" stop-color="#D9E14B"/><stop offset=".545" stop-color="#D8E148"/><stop offset=".679" stop-color="#D6E048"/><stop offset=".747" stop-color="#CFDD47"/><stop offset=".799" stop-color="#C2D946"/><stop offset=".844" stop-color="#B1D245"/><stop offset=".884" stop-color="#99CA44"/><stop offset=".921" stop-color="#7BC143"/><stop offset=".927" stop-color="#75C044"/><stop offset="1" stop-color="#073800"/></radialGradient><g transform="translate(-30.619 -15.159) scale(.13787)"><circle cx="396.17" cy="216.92" r="102.5" fill="url(#dragonflybsd_svg__a)" stroke="#000" stroke-width="8.943"/><path fill="#ed1c24" d="M387.04 247.64h18.25c0 68.9-6.1 207.49-9.13 207.49-3.02 0-9.12-138.59-9.12-207.49z"/><path fill="none" stroke="#000" stroke-width="5.962" d="M387.04 247.64c0 68.9 6.1 207.49 9.12 207.49m9.14-207.49c0 68.9-6.1 207.49-9.13 207.49m-9.13-207.49h18.25M387.2 271.2h17.953m-17.533 20.57h17.09m-16.57 20.56h16.071m-15.441 20.55h14.808m-14.038 20.55h13.307M390.33 373.95h11.679m-10.739 20.52h9.791"/><ellipse cx="396.17" cy="216.92" fill="#ed1c24" rx="17.08" ry="40.27"/><ellipse cx="396.17" cy="216.92" fill="none" stroke="#000" stroke-width="5.962" rx="17.075" ry="40.27"/><path fill="#fde92b" d="M413.23 173.49c0 4.07-2.04 7.75-5.319 10.35h-.01l-6.971-24.05c7.111 1.72 12.3 7.2 12.3 13.7z"/><path fill="#fde92b" d="m400.93 159.79 6.971 24.05c-2.631 0-7.061-12.35-9.66-24.51.919.09 1.819.24 2.689.46z"/><path fill="#9a090d" d="M407.9 183.84c-3.061 2.43-7.19 3.92-11.741 3.92-4.55 0-8.68-1.49-11.74-3.92 2.63 0 7.06-12.35 9.66-24.51.68-.07 1.37-.11 2.08-.11s1.4.04 2.081.11c2.6 12.16 7.03 24.51 9.66 24.51zm-11.74-40.51 4.77 16.46c-.87-.22-1.77-.37-2.689-.46-1.251-5.84-2.081-11.63-2.081-16z"/><path d="M398.24 159.33c-.681-.07-1.37-.11-2.081-.11-.71 0-1.4.04-2.08.11 1.25-5.84 2.08-11.63 2.08-16 .001 4.37.831 10.16 2.081 16z"/><path d="m391.39 159.79 4.77-16.46c0 4.37-.83 10.16-2.08 16-.92.09-1.82.25-2.69.46z"/><path fill="#fde92b" d="M394.08 159.33c-2.6 12.16-7.03 24.51-9.66 24.51l6.97-24.05c.87-.21 1.77-.37 2.69-.46z"/><path fill="#fde92b" d="m391.39 159.79-6.97 24.05c-3.28-2.6-5.32-6.28-5.32-10.35 0-6.49 5.19-11.98 12.29-13.7z"/><g fill="none" stroke="#000" stroke-width="5.593"><path d="M394.08 159.33c.68-.07 1.37-.11 2.08-.11s1.4.04 2.081.11c.92.09 1.819.24 2.689.46 7.11 1.72 12.3 7.2 12.3 13.7 0 4.07-2.04 7.75-5.319 10.35h-.01c-3.061 2.43-7.19 3.92-11.741 3.92-4.55 0-8.68-1.49-11.74-3.92-3.28-2.6-5.32-6.28-5.32-10.35 0-6.49 5.19-11.98 12.29-13.7.87-.21 1.77-.37 2.69-.46z"/><path d="M384.42 183.84c2.63 0 7.06-12.35 9.66-24.51 1.25-5.84 2.08-11.63 2.08-16m0 0c0 4.37.83 10.16 2.081 16 2.6 12.16 7.029 24.51 9.66 24.51"/></g><path fill="#fff" stroke="#000" stroke-width="5.962" d="M396.16 210.65s-101.31 12.43-135.32-51.591c-30.549-57.507 135.33 44.339 135.33 44.339zm.02 19.1s-80.307 59.485-138.9 18.468c-52.632-36.84 138.9-25.42 138.9-25.42zm0-19.15s101.31 12.43 135.32-51.591c30.549-57.507-135.33 44.339-135.33 44.339z"/><path fill="#fff" stroke="#000" stroke-width="5.962" d="M396.16 229.7s80.307 59.485 138.9 18.468c52.631-36.84-138.9-25.42-138.9-25.42z"/></g></svg>

<svg xmlns="http://www.w3.org/2000/svg" viewBox="0 0 48 48"><radialGradient id="a" cx="396.17" cy="216.92" r="102.5" gradientUnits="userSpaceOnUse"><stop offset="0" stop-color="#fff"/><stop offset=".042" stop-color="#F7F9D8"/><stop offset=".091" stop-color="#EFF2B2"/><stop offset=".143" stop-color="#E8ED91"/><stop offset=".199" stop-color="#E2E976"/><stop offset=".261" stop-color="#DDE562"/><stop offset=".33" stop-color="#DAE353"/><stop offset=".412" stop-color="#D9E14B"/><stop offset=".545" stop-color="#D8E148"/><stop offset=".679" stop-color="#D6E048"/><stop offset=".747" stop-color="#CFDD47"/><stop offset=".799" stop-color="#C2D946"/><stop offset=".844" stop-color="#B1D245"/><stop offset=".884" stop-color="#99CA44"/><stop offset=".921" stop-color="#7BC143"/><stop offset=".927" stop-color="#75C044"/><stop offset="1" stop-color="#073800"/></radialGradient><g transform="translate(-30.619 -15.159) scale(.13787)"><circle cx="396.17" cy="216.92" r="102.5" fill="url(#a)" stroke="#000" stroke-width="8.943"/><path fill="#ed1c24" d="M387.04 247.64h18.25c0 68.9-6.1 207.49-9.13 207.49-3.02 0-9.12-138.59-9.12-207.49z"/><g fill="none" stroke="#000" stroke-width="5.962"><path d="M387.04 247.64c0 68.9 6.1 207.49 9.12 207.49M405.3 247.64c0 68.9-6.1 207.49-9.13 207.49M387.04 247.64h18.25"/></g><g fill="none" stroke="#000" stroke-width="5.962"><path d="M387.2 271.2h17.953M387.62 291.77h17.09M388.14 312.33h16.071M388.77 332.88h14.808M389.54 353.43h13.307"/></g><g fill="none" stroke="#000" stroke-width="5.962"><path d="M390.33 373.95h11.679M391.27 394.47h9.791"/></g><ellipse cx="396.17" cy="216.92" fill="#ed1c24" rx="17.08" ry="40.27"/><ellipse cx="396.17" cy="216.92" fill="none" stroke="#000" stroke-width="5.962" rx="17.075" ry="40.27"/><path fill="#fde92b" d="M413.23 173.49c0 4.07-2.04 7.75-5.319 10.35h-.01l-6.971-24.05c7.111 1.72 12.3 7.2 12.3 13.7z"/><path fill="#fde92b" d="m400.93 159.79 6.971 24.05c-2.631 0-7.061-12.35-9.66-24.51.919.09 1.819.24 2.689.46z"/><path fill="#9a090d" d="M407.9 183.84c-3.061 2.43-7.19 3.92-11.741 3.92-4.55 0-8.68-1.49-11.74-3.92 2.63 0 7.06-12.35 9.66-24.51.68-.07 1.37-.11 2.08-.11s1.4.04 2.081.11c2.6 12.16 7.03 24.51 9.66 24.51zM396.16 143.33l4.77 16.46c-.87-.22-1.77-.37-2.689-.46-1.251-5.84-2.081-11.63-2.081-16z"/><path d="M398.24 159.33c-.681-.07-1.37-.11-2.081-.11-.71 0-1.4.04-2.08.11 1.25-5.84 2.08-11.63 2.08-16 .001 4.37.831 10.16 2.081 16z"/><path d="m391.39 159.79 4.77-16.46c0 4.37-.83 10.16-2.08 16-.92.09-1.82.25-2.69.46z"/><path fill="#fde92b" d="M394.08 159.33c-2.6 12.16-7.03 24.51-9.66 24.51l6.97-24.05c.87-.21 1.77-.37 2.69-.46z"/><path fill="#fde92b" d="m391.39 159.79-6.97 24.05c-3.28-2.6-5.32-6.28-5.32-10.35 0-6.49 5.19-11.98 12.29-13.7z"/><g fill="none" stroke="#000" stroke-width="5.593"><path d="M394.08 159.33c.68-.07 1.37-.11 2.08-.11s1.4.04 2.081.11c.92.09 1.819.24 2.689.46 7.11 1.72 12.3 7.2 12.3 13.7 0 4.07-2.04 7.75-5.319 10.35h-.01c-3.061 2.43-7.19 3.92-11.741 3.92-4.55 0-8.68-1.49-11.74-3.92-3.28-2.6-5.32-6.28-5.32-10.35 0-6.49 5.19-11.98 12.29-13.7.87-.21 1.77-.37 2.69-.46z"/><path d="M384.42 183.84c2.63 0 7.06-12.35 9.66-24.51 1.25-5.84 2.08-11.63 2.08-16M396.16 143.33c0 4.37.83 10.16 2.081 16 2.6 12.16 7.029 24.51 9.66 24.51"/></g><path fill="#fff" stroke="#000" stroke-width="5.962" d="M396.16 210.65s-101.31 12.43-135.32-51.591c-30.549-57.507 135.33 44.339 135.33 44.339zM396.18 229.75s-80.307 59.485-138.9 18.468c-52.632-36.84 138.9-25.42 138.9-25.42zM396.18 210.6s101.31 12.43 135.32-51.591c30.549-57.507-135.33 44.339-135.33 44.339z"/><path fill="#fff" stroke="#000" stroke-width="5.962" d="M396.16 229.7s80.307 59.485 138.9 18.468c52.631-36.84-138.9-25.42-138.9-25.42z"/></g></svg>
